static/img/kroki/9c36174f1a3a3f305e1c64ac0f156e2a.svg

<?xml version="1.0" encoding="us-ascii" standalone="no"?><svg xmlns="http://www.w3.org/2000/svg" xmlns:xlink="http://www.w3.org/1999/xlink" contentStyleType="text/css" height="352px" preserveAspectRatio="none" style="width:577px;height:352px;" version="1.1" viewBox="0 0 577 352" width="577px" zoomAndPan="magnify"><defs/><g><!--class aws_apigateway_authorizer--><g id="elem_aws_apigateway_authorizer"><rect codeLine="23" fill="#3D176E" height="39.7891" id="aws_apigateway_authorizer" rx="2.5" ry="2.5" style="stroke:#000D19;stroke-width:0.5;" width="276" x="21.64" y="206.58"/><ellipse cx="36.64" cy="226.4745" fill="#ADD1B2" rx="11" ry="11" style="stroke:#181818;stroke-width:1.0;"/><path d="M39.6088,232.1152 Q39.0306,232.412 38.39,232.5527 Q37.7494,232.7089 37.0463,232.7089 Q34.5463,232.7089 33.2181,231.0683 Q31.9056,229.412 31.9056,226.287 Q31.9056,223.162 33.2181,221.5058 Q34.5463,219.8495 37.0463,219.8495 Q37.7494,219.8495 38.39,220.0058 Q39.0463,220.162 39.6088,220.4589 L39.6088,223.1777 Q38.9838,222.5995 38.39,222.3339 Q37.7963,222.0527 37.1713,222.0527 Q35.8275,222.0527 35.14,223.1308 Q34.4525,224.1933 34.4525,226.287 Q34.4525,228.3808 35.14,229.4589 Q35.8275,230.5214 37.1713,230.5214 Q37.7963,230.5214 38.39,230.2558 Q38.9838,229.9745 39.6088,229.3964 L39.6088,232.1152 Z " fill="#000000"/><text fill="#D9B8FF" font-family="Helvetica" font-size="17" lengthAdjust="spacing" textLength="234" x="55.64" y="232.3598">aws_apigateway_authorizer</text></g><!--class aws_apigateway_resource--><g id="elem_aws_apigateway_resource"><rect codeLine="26" fill="#3D176E" height="39.7891" id="aws_apigateway_resource" rx="2.5" ry="2.5" style="stroke:#000D19;stroke-width:0.5;" width="261" x="246.14" y="106.79"/><ellipse cx="261.14" cy="126.6845" fill="#ADD1B2" rx="11" ry="11" style="stroke:#181818;stroke-width:1.0;"/><path d="M264.1088,132.3252 Q263.5306,132.622 262.89,132.7627 Q262.2494,132.9189 261.5463,132.9189 Q259.0463,132.9189 257.7181,131.2783 Q256.4056,129.622 256.4056,126.497 Q256.4056,123.372 257.7181,121.7158 Q259.0463,120.0595 261.5463,120.0595 Q262.2494,120.0595 262.89,120.2158 Q263.5463,120.372 264.1088,120.6689 L264.1088,123.3877 Q263.4838,122.8095 262.89,122.5439 Q262.2963,122.2627 261.6713,122.2627 Q260.3275,122.2627 259.64,123.3408 Q258.9525,124.4033 258.9525,126.497 Q258.9525,128.5908 259.64,129.6689 Q260.3275,130.7314 261.6713,130.7314 Q262.2963,130.7314 262.89,130.4658 Q263.4838,130.1845 264.1088,129.6064 L264.1088,132.3252 Z " fill="#000000"/><text fill="#D9B8FF" font-family="Helvetica" font-size="17" lengthAdjust="spacing" textLength="219" x="280.14" y="132.5698">aws_apigateway_resource</text></g><!--class aws_apigateway_rest_api--><g id="elem_aws_apigateway_rest_api"><rect codeLine="29" fill="#3D176E" height="39.7891" id="aws_apigateway_rest_api" rx="2.5" ry="2.5" style="stroke:#000D19;stroke-width:0.5;" width="256" x="248.64" y="7"/><ellipse cx="263.64" cy="26.8945" fill="#ADD1B2" rx="11" ry="11" style="stroke:#181818;stroke-width:1.0;"/><path d="M266.6088,32.5352 Q266.0306,32.832 265.39,32.9727 Q264.7494,33.1289 264.0463,33.1289 Q261.5463,33.1289 260.2181,31.4883 Q258.9056,29.832 258.9056,26.707 Q258.9056,23.582 260.2181,21.9258 Q261.5463,20.2695 264.0463,20.2695 Q264.7494,20.2695 265.39,20.4258 Q266.0463,20.582 266.6088,20.8789 L266.6088,23.5977 Q265.9838,23.0195 265.39,22.7539 Q264.7963,22.4727 264.1713,22.4727 Q262.8275,22.4727 262.14,23.5508 Q261.4525,24.6133 261.4525,26.707 Q261.4525,28.8008 262.14,29.8789 Q262.8275,30.9414 264.1713,30.9414 Q264.7963,30.9414 265.39,30.6758 Q265.9838,30.3945 266.6088,29.8164 L266.6088,32.5352 Z " fill="#000000"/><text fill="#D9B8FF" font-family="Helvetica" font-size="17" lengthAdjust="spacing" textLength="214" x="282.64" y="32.7798">aws_apigateway_rest_api</text></g><!--class aws_iam_role--><g id="elem_aws_iam_role"><rect codeLine="32" fill="#3D176E" height="39.7891" id="aws_iam_role" rx="2.5" ry="2.5" style="stroke:#000D19;stroke-width:0.5;" width="157" x="54.14" y="106.79"/><ellipse cx="69.14" cy="126.6845" fill="#ADD1B2" rx="11" ry="11" style="stroke:#181818;stroke-width:1.0;"/><path d="M72.1088,132.3252 Q71.5306,132.622 70.89,132.7627 Q70.2494,132.9189 69.5463,132.9189 Q67.0463,132.9189 65.7181,131.2783 Q64.4056,129.622 64.4056,126.497 Q64.4056,123.372 65.7181,121.7158 Q67.0463,120.0595 69.5463,120.0595 Q70.2494,120.0595 70.89,120.2158 Q71.5463,120.372 72.1088,120.6689 L72.1088,123.3877 Q71.4838,122.8095 70.89,122.5439 Q70.2963,122.2627 69.6713,122.2627 Q68.3275,122.2627 67.64,123.3408 Q66.9525,124.4033 66.9525,126.497 Q66.9525,128.5908 67.64,129.6689 Q68.3275,130.7314 69.6713,130.7314 Q70.2963,130.7314 70.89,130.4658 Q71.4838,130.1845 72.1088,129.6064 L72.1088,132.3252 Z " fill="#000000"/><text fill="#D9B8FF" font-family="Helvetica" font-size="17" lengthAdjust="spacing" textLength="115" x="88.14" y="132.5698">aws_iam_role</text></g><!--class aws_lambda_function--><g id="elem_aws_lambda_function"><rect codeLine="35" fill="#3D176E" height="39.7891" id="aws_lambda_function" rx="2.5" ry="2.5" style="stroke:#000D19;stroke-width:0.5;" width="224" x="264.64" y="306.37"/><ellipse cx="279.64" cy="326.2645" fill="#ADD1B2" rx="11" ry="11" style="stroke:#181818;stroke-width:1.0;"/><path d="M282.6088,331.9052 Q282.0306,332.202 281.39,332.3427 Q280.7494,332.4989 280.0463,332.4989 Q277.5463,332.4989 276.2181,330.8583 Q274.9056,329.202 274.9056,326.077 Q274.9056,322.952 276.2181,321.2958 Q277.5463,319.6395 280.0463,319.6395 Q280.7494,319.6395 281.39,319.7958 Q282.0463,319.952 282.6088,320.2489 L282.6088,322.9677 Q281.9838,322.3895 281.39,322.1239 Q280.7963,321.8427 280.1713,321.8427 Q278.8275,321.8427 278.14,322.9208 Q277.4525,323.9833 277.4525,326.077 Q277.4525,328.1708 278.14,329.2489 Q278.8275,330.3114 280.1713,330.3114 Q280.7963,330.3114 281.39,330.0458 Q281.9838,329.7645 282.6088,329.1864 L282.6088,331.9052 Z " fill="#000000"/><text fill="#D9B8FF" font-family="Helvetica" font-size="17" lengthAdjust="spacing" textLength="182" x="298.64" y="332.1498">aws_lambda_function</text></g><!--link aws_apigateway_authorizer to aws_lambda_function--><g id="link_aws_apigateway_authorizer_aws_lambda_function"><path codeLine="38" d="M202.51,246.8 C240.56,263.94 290.3701,286.3841 328.3901,303.5241 " fill="none" id="aws_apigateway_authorizer-to-aws_lambda_function" style="stroke:#1A83AF;stroke-width:2.0;"/><polygon fill="#1A83AF" points="333.86,305.99,327.2991,298.6446,329.3018,303.9351,324.0113,305.9377,333.86,305.99" style="stroke:#1A83AF;stroke-width:2.0;"/></g><!--link aws_apigateway_resource to aws_apigateway_authorizer--><g id="link_aws_apigateway_resource_aws_apigateway_authorizer"><path codeLine="39" d="M333.77,147.01 C295.72,164.15 245.9099,186.5941 207.8899,203.7341 " fill="none" id="aws_apigateway_resource-to-aws_apigateway_authorizer" style="stroke:#1A83AF;stroke-width:2.0;"/><polygon fill="#1A83AF" points="202.42,206.2,212.2687,206.1477,206.9782,204.1451,208.9809,198.8546,202.42,206.2" style="stroke:#1A83AF;stroke-width:2.0;"/></g><!--link aws_apigateway_resource to aws_lambda_function--><g id="link_aws_apigateway_resource_aws_lambda_function"><path codeLine="40" d="M376.64,146.99 C376.64,184.76 376.64,262.05 376.64,299.88 " fill="none" id="aws_apigateway_resource-to-aws_lambda_function" style="stroke:#1A83AF;stroke-width:2.0;"/><polygon fill="#1A83AF" points="376.64,305.88,380.64,296.88,376.64,300.88,372.64,296.88,376.64,305.88" style="stroke:#1A83AF;stroke-width:2.0;"/></g><!--link aws_apigateway_rest_api to aws_apigateway_authorizer--><g id="link_aws_apigateway_rest_api_aws_apigateway_authorizer"><path codeLine="41" d="M248.54,41.11 C163.66,52.81 63.22,73.34 36.64,106.79 C6,145.36 61.3975,181.2206 107.9475,203.4906 " fill="none" id="aws_apigateway_rest_api-to-aws_apigateway_authorizer" style="stroke:#1A83AF;stroke-width:2.0;"/><polygon fill="#1A83AF" points="113.36,206.08,106.9675,198.5876,108.8496,203.9222,103.515,205.8042,113.36,206.08" style="stroke:#1A83AF;stroke-width:2.0;"/></g><!--link aws_apigateway_rest_api to aws_apigateway_resource--><g id="link_aws_apigateway_rest_api_aws_apigateway_resource"><path codeLine="42" d="M376.64,47.22 C376.64,64.36 376.64,83.28 376.64,100.41 " fill="none" id="aws_apigateway_rest_api-to-aws_apigateway_resource" style="stroke:#1A83AF;stroke-width:2.0;"/><polygon fill="#1A83AF" points="376.64,106.41,380.64,97.41,376.64,101.41,372.64,97.41,376.64,106.41" style="stroke:#1A83AF;stroke-width:2.0;"/></g><!--link aws_apigateway_rest_api to aws_lambda_function--><g id="link_aws_apigateway_rest_api_aws_lambda_function"><path codeLine="43" d="M446.19,47.2 C475.79,59.24 507.41,78.08 524.64,106.79 C570.26,182.8 467.3323,265.372 411.9223,302.792 " fill="none" id="aws_apigateway_rest_api-to-aws_lambda_function" style="stroke:#1A83AF;stroke-width:2.0;"/><polygon fill="#1A83AF" points="406.95,306.15,416.6471,304.4279,411.0936,303.3517,412.1699,297.7982,406.95,306.15" style="stroke:#1A83AF;stroke-width:2.0;"/></g><!--link aws_iam_role to aws_apigateway_authorizer--><g id="link_aws_iam_role_aws_apigateway_authorizer"><path codeLine="44" d="M137.97,147.01 C142.71,164.15 147.9939,183.2762 152.7239,200.4162 " fill="none" id="aws_iam_role-to-aws_apigateway_authorizer" style="stroke:#1A83AF;stroke-width:2.0;"/><polygon fill="#1A83AF" points="154.32,206.2,155.7817,196.4602,152.9899,201.3802,148.07,198.5884,154.32,206.2" style="stroke:#1A83AF;stroke-width:2.0;"/></g><!--SRC=[dP5DIyD048Rl-HKBFHSQYxQz2B5Gz5B4UXC9a-niipJP3RCJGnN_kusn4lFH5e_PUTwPPoQ9bYWmotalCimY9EUvdJOv46GY8BBbqgQMn4WfKDDPkxYoXiy2QyXGt6FwXgnZQ1FFYOvt1fqJLutI7SIxBTd2oBez4nXtAA7X1hLCmRc0cNHKC3Pav2AQAzKcsqr7K-dFRh23MP98FyXaCf7-eesS7NLoxrzYezzH-CsZhIrZHxCpufiwQLaH3SdEeiVweECZIAdDLbmttfvg9p98Vzut2KXRLhI2r3N7E4P2o_iSbvsjS36NQjOBFmp1NboTJa3fGiZr5XXBs8TGS6BfS4iI7vxtsGyHEbjGZASHhhxRY8Oi99jseYbaaOHG5IPcRKrT7dORlupyO3uDLg_ZsxwyDsJS2VRslpn-VcvzXd_FFHy_obqUxfF-_J4Ncdu1]--></g></svg>

<svg xmlns="http://www.w3.org/2000/svg" width="577" height="352" viewBox="0 0 577 352"><rect width="276" height="39.789" x="21.64" y="206.58" fill="#3D176E" rx="2.5" ry="2.5" style="stroke:#000d19;stroke-width:.5"/><circle cx="36.64" cy="226.475" r="11" fill="#ADD1B2" style="stroke:#181818;stroke-width:1"/><path d="M39.609 232.115q-.578.297-1.219.438-.64.156-1.344.156-2.5 0-3.828-1.64-1.312-1.657-1.312-4.782t1.312-4.781q1.328-1.656 3.828-1.656.703 0 1.344.156.656.156 1.219.453v2.719q-.625-.578-1.219-.844-.594-.281-1.219-.281-1.343 0-2.031 1.078-.687 1.062-.687 3.156t.687 3.172q.688 1.062 2.031 1.062.625 0 1.219-.265.594-.281 1.219-.86z"/><text x="55.64" y="232.36" fill="#D9B8FF" font-family="Helvetica" font-size="17" textLength="234">aws_apigateway_authorizer</text><rect width="261" height="39.789" x="246.14" y="106.79" fill="#3D176E" rx="2.5" ry="2.5" style="stroke:#000d19;stroke-width:.5"/><circle cx="261.14" cy="126.684" r="11" fill="#ADD1B2" style="stroke:#181818;stroke-width:1"/><path d="M264.109 132.325q-.578.297-1.219.438-.64.156-1.344.156-2.5 0-3.828-1.64-1.312-1.657-1.312-4.782t1.312-4.781q1.328-1.656 3.828-1.656.703 0 1.344.156.656.156 1.219.453v2.719q-.625-.579-1.219-.844-.594-.281-1.219-.281-1.344 0-2.031 1.078-.687 1.062-.687 3.156t.687 3.172q.688 1.062 2.031 1.062.625 0 1.219-.265.594-.281 1.219-.86z"/><text x="280.14" y="132.57" fill="#D9B8FF" font-family="Helvetica" font-size="17" textLength="219">aws_apigateway_resource</text><rect width="256" height="39.789" x="248.64" y="7" fill="#3D176E" rx="2.5" ry="2.5" style="stroke:#000d19;stroke-width:.5"/><circle cx="263.64" cy="26.895" r="11" fill="#ADD1B2" style="stroke:#181818;stroke-width:1"/><path d="M266.609 32.535q-.578.297-1.219.438-.64.156-1.344.156-2.5 0-3.828-1.64-1.312-1.657-1.312-4.782t1.312-4.781q1.328-1.656 3.828-1.656.703 0 1.344.156.656.156 1.219.453v2.719q-.625-.578-1.219-.844-.594-.281-1.219-.281-1.344 0-2.031 1.078-.687 1.062-.687 3.156t.687 3.172q.688 1.062 2.031 1.062.625 0 1.219-.265.594-.281 1.219-.86z"/><text x="282.64" y="32.78" fill="#D9B8FF" font-family="Helvetica" font-size="17" textLength="214">aws_apigateway_rest_api</text><rect width="157" height="39.789" x="54.14" y="106.79" fill="#3D176E" rx="2.5" ry="2.5" style="stroke:#000d19;stroke-width:.5"/><circle cx="69.14" cy="126.684" r="11" fill="#ADD1B2" style="stroke:#181818;stroke-width:1"/><path d="M72.109 132.325q-.578.297-1.219.438-.64.156-1.344.156-2.5 0-3.828-1.64-1.312-1.657-1.312-4.782t1.312-4.781q1.328-1.656 3.828-1.656.703 0 1.344.156.656.156 1.219.453v2.719q-.625-.579-1.219-.844-.594-.281-1.219-.281-1.344 0-2.031 1.078-.687 1.062-.687 3.156t.687 3.172q.688 1.062 2.031 1.062.625 0 1.219-.265.594-.281 1.219-.86z"/><text x="88.14" y="132.57" fill="#D9B8FF" font-family="Helvetica" font-size="17" textLength="115">aws_iam_role</text><rect width="224" height="39.789" x="264.64" y="306.37" fill="#3D176E" rx="2.5" ry="2.5" style="stroke:#000d19;stroke-width:.5"/><circle cx="279.64" cy="326.264" r="11" fill="#ADD1B2" style="stroke:#181818;stroke-width:1"/><path d="M282.609 331.905q-.578.297-1.219.438-.64.156-1.344.156-2.5 0-3.828-1.64-1.312-1.657-1.312-4.782t1.312-4.781q1.328-1.656 3.828-1.656.703 0 1.344.156.656.156 1.219.453v2.719q-.625-.579-1.219-.844-.594-.281-1.219-.281-1.344 0-2.031 1.078-.687 1.062-.687 3.156t.687 3.172q.688 1.062 2.031 1.062.625 0 1.219-.265.594-.281 1.219-.86z"/><text x="298.64" y="332.15" fill="#D9B8FF" font-family="Helvetica" font-size="17" textLength="182">aws_lambda_function</text><path fill="none" d="M202.51 246.8c38.05 17.14 87.86 39.584 125.88 56.724" style="stroke:#1a83af;stroke-width:2"/><path fill="#1A83AF" d="m333.86 305.99-6.56-7.345 2.002 5.29-5.29 2.003z" style="stroke:#1a83af;stroke-width:2"/><path fill="none" d="M333.77 147.01c-38.05 17.14-87.86 39.584-125.88 56.724" style="stroke:#1a83af;stroke-width:2"/><path fill="#1A83AF" d="m202.42 206.2 9.849-.052-5.29-2.003 2.002-5.29z" style="stroke:#1a83af;stroke-width:2"/><path fill="none" d="M376.64 146.99v152.89" style="stroke:#1a83af;stroke-width:2"/><path fill="#1A83AF" d="m376.64 305.88 4-9-4 4-4-4z" style="stroke:#1a83af;stroke-width:2"/><path fill="none" d="M248.54 41.11c-84.88 11.7-185.32 32.23-211.9 65.68-30.64 38.57 24.758 74.43 71.308 96.7" style="stroke:#1a83af;stroke-width:2"/><path fill="#1A83AF" d="m113.36 206.08-6.392-7.492 1.882 5.334-5.335 1.882z" style="stroke:#1a83af;stroke-width:2"/><path fill="none" d="M376.64 47.22v53.19" style="stroke:#1a83af;stroke-width:2"/><path fill="#1A83AF" d="m376.64 106.41 4-9-4 4-4-4z" style="stroke:#1a83af;stroke-width:2"/><path fill="none" d="M446.19 47.2c29.6 12.04 61.22 30.88 78.45 59.59 45.62 76.01-57.308 158.582-112.718 196.002" style="stroke:#1a83af;stroke-width:2"/><path fill="#1A83AF" d="m406.95 306.15 9.697-1.722-5.553-1.076 1.076-5.554z" style="stroke:#1a83af;stroke-width:2"/><path fill="none" d="M137.97 147.01c4.74 17.14 10.024 36.266 14.754 53.406" style="stroke:#1a83af;stroke-width:2"/><path fill="#1A83AF" d="m154.32 206.2 1.462-9.74-2.792 4.92-4.92-2.792z" style="stroke:#1a83af;stroke-width:2"/></svg>
